src/ui/setup/svgs/scorer-vertex.svg

<svg viewBox="-1 -110 220 220">
        <g class="svg-grid">
          <g class="svg-tiles">
            <g
              class="svg-tile"
              clip-path="path('M 10.5200 3.0000 L 89.4800 3.0000 C 93.2400 3.0000 97.0000 6.7600 97.0000 10.5200 L 97.0000 89.4800 C 97.0000 93.2400 93.2400 97.0000 89.4800 97.0000 L 10.5200 97.0000 C 6.7600 97.0000 3.0000 93.2400 3.0000 89.4800 L 3.0000 10.5200 C 3.0000 6.7600 6.7600 3.0000 10.5200 3.0000 Z ') view-box"
            >
              <path
                fill="#E06300"
                d="M 0.0000 0.0000 L 100.0000 0.0000 L 83.3333 50.0000 L 50.0000 50.0000 L 16.6667 50.0000 Z"
              ></path>
              <path
                fill="#0078BB"
                d="M 100.0000 0.0000 L 100.0000 100.0000 L 50.0000 83.3333 L 50.0000 50.0000 Z"
              ></path>
              <path
                fill="#00A679"
                d="M 100.0000 100.0000 L 0.0000 100.0000 L 16.6667 50.0000 L 50.0000 50.0000 Z"
              ></path>
              <path
                fill="#F2A700"
                d="M 0.0000 100.0000 L 0.0000 0.0000 L 50.0000 50.0000 Z"
              ></path>
            </g>
            <g
              class="svg-tile"
              clip-path="path('M 103.0000 89.4800 L 103.0000 10.5200 C 103.0000 6.7600 106.7600 3.0000 110.5200 3.0000 L 189.4800 3.0000 C 193.2400 3.0000 197.0000 6.7600 197.0000 10.5200 L 197.0000 89.4800 C 197.0000 93.2400 193.2400 97.0000 189.4800 97.0000 L 110.5200 97.0000 C 106.7600 97.0000 103.0000 93.2400 103.0000 89.4800 Z ') view-box"
            >
              <path
                fill="#E06300"
                d="M 100.0000 100.0000 L 100.0000 0.0000 L 150.0000 16.6667 L 150.0000 50.0000 L 150.0000 83.3333 Z"
              ></path>
              <path
                fill="#0078BB"
                d="M 100.0000 0.0000 L 200.0000 -0.0000 L 183.3333 50.0000 L 150.0000 50.0000 Z"
              ></path>
              <path
                fill="#00A679"
                d="M 200.0000 -0.0000 L 200.0000 100.0000 L 150.0000 83.3333 L 150.0000 50.0000 Z"
              ></path>
              <path
                fill="#0078BB"
                d="M 200.0000 100.0000 L 100.0000 100.0000 L 150.0000 50.0000 Z"
              ></path>
            </g>
            <g
              class="svg-tile"
              clip-path="path('M 189.4800 -3.0000 L 110.5200 -3.0000 C 106.7600 -3.0000 103.0000 -6.7600 103.0000 -10.5200 L 103.0000 -89.4800 C 103.0000 -93.2400 106.7600 -97.0000 110.5200 -97.0000 L 189.4800 -97.0000 C 193.2400 -97.0000 197.0000 -93.2400 197.0000 -89.4800 L 197.0000 -10.5200 C 197.0000 -6.7600 193.2400 -3.0000 189.4800 -3.0000 Z ') view-box"
            >
              <path
                fill="#00A679"
                d="M 200.0000 -0.0000 L 100.0000 0.0000 L 116.6667 -50.0000 L 150.0000 -50.0000 L 183.3333 -50.0000 Z"
              ></path>
              <path
                fill="#00A679"
                d="M 100.0000 0.0000 L 100.0000 -100.0000 L 150.0000 -83.3333 L 150.0000 -50.0000 Z"
              ></path>
              <path
                fill="#0078BB"
                d="M 100.0000 -100.0000 L 200.0000 -100.0000 L 183.3333 -50.0000 L 150.0000 -50.0000 Z"
              ></path>
              <path
                fill="#E06300"
                d="M 200.0000 -100.0000 L 200.0000 -0.0000 L 150.0000 -50.0000 Z"
              ></path>
            </g>
            <g
              class="svg-tile"
              clip-path="path('M 89.4800 -3.0000 L 10.5200 -3.0000 C 6.7600 -3.0000 3.0000 -6.7600 3.0000 -10.5200 L 3.0000 -89.4800 C 3.0000 -93.2400 6.7600 -97.0000 10.5200 -97.0000 L 89.4800 -97.0000 C 93.2400 -97.0000 97.0000 -93.2400 97.0000 -89.4800 L 97.0000 -10.5200 C 97.0000 -6.7600 93.2400 -3.0000 89.4800 -3.0000 Z ') view-box"
            >
              <path
                fill="#00A679"
                d="M 100.0000 0.0000 L 0.0000 0.0000 L 16.6667 -50.0000 L 50.0000 -50.0000 L 83.3333 -50.0000 Z"
              ></path>
              <path
                fill="#0078BB"
                d="M 0.0000 0.0000 L -0.0000 -100.0000 L 50.0000 -83.3333 L 50.0000 -50.0000 Z"
              ></path>
              <path
                fill="#0078BB"
                d="M -0.0000 -100.0000 L 100.0000 -100.0000 L 83.3333 -50.0000 L 50.0000 -50.0000 Z"
              ></path>
              <path
                fill="#E06300"
                d="M 100.0000 -100.0000 L 100.0000 0.0000 L 50.0000 -50.0000 Z"
              ></path>
            </g>
          </g>
          <g class="svg-score-overlay disabled">
            <path
              fill="white"
              opacity="0.8"
              d="M -10 -110 h220 v220 h-220z M 5.0000 5.0000 L 45.0000 45.0000 C 47.5000 47.5000 52.5000 52.5000 55.0000 55.0000 L 95.0000 95.0000 C 97.5000 97.5000 102.5000 97.5000 105.0000 95.0000 L 145.0000 55.0000 C 147.5000 52.5000 152.5000 47.5000 155.0000 45.0000 L 195.0000 5.0000 C 197.5000 2.5000 197.5000 -2.5000 195.0000 -5.0000 L 155.0000 -45.0000 C 152.5000 -47.5000 147.5000 -52.5000 145.0000 -55.0000 L 105.0000 -95.0000 C 102.5000 -97.5000 97.5000 -97.5000 95.0000 -95.0000 L 55.0000 -55.0000 C 52.5000 -52.5000 47.5000 -47.5000 45.0000 -45.0000 L 5.0000 -5.0000 C 2.5000 -2.5000 2.5000 2.5000 5.0000 5.0000 Z "
            ></path>
            <path
              class="outline-bg"
              stroke="#ffffff"
              stroke-width="20px"
              fill="transparent"
              d="M 5.0000 5.0000 L 45.0000 45.0000 C 47.5000 47.5000 52.5000 52.5000 55.0000 55.0000 L 95.0000 95.0000 C 97.5000 97.5000 102.5000 97.5000 105.0000 95.0000 L 145.0000 55.0000 C 147.5000 52.5000 152.5000 47.5000 155.0000 45.0000 L 195.0000 5.0000 C 197.5000 2.5000 197.5000 -2.5000 195.0000 -5.0000 L 155.0000 -45.0000 C 152.5000 -47.5000 147.5000 -52.5000 145.0000 -55.0000 L 105.0000 -95.0000 C 102.5000 -97.5000 97.5000 -97.5000 95.0000 -95.0000 L 55.0000 -55.0000 C 52.5000 -52.5000 47.5000 -47.5000 45.0000 -45.0000 L 5.0000 -5.0000 C 2.5000 -2.5000 2.5000 2.5000 5.0000 5.0000 Z "
            ></path>
            <path
              class="outline-fg"
              stroke="#9acd32"
              stroke-width="10px"
              fill="transparent"
              d="M 5.0000 5.0000 L 45.0000 45.0000 C 47.5000 47.5000 52.5000 52.5000 55.0000 55.0000 L 95.0000 95.0000 C 97.5000 97.5000 102.5000 97.5000 105.0000 95.0000 L 145.0000 55.0000 C 147.5000 52.5000 152.5000 47.5000 155.0000 45.0000 L 195.0000 5.0000 C 197.5000 2.5000 197.5000 -2.5000 195.0000 -5.0000 L 155.0000 -45.0000 C 152.5000 -47.5000 147.5000 -52.5000 145.0000 -55.0000 L 105.0000 -95.0000 C 102.5000 -97.5000 97.5000 -97.5000 95.0000 -95.0000 L 55.0000 -55.0000 C 52.5000 -52.5000 47.5000 -47.5000 45.0000 -45.0000 L 5.0000 -5.0000 C 2.5000 -2.5000 2.5000 2.5000 5.0000 5.0000 Z "
            ></path>
          </g>
        </g>
      </svg>

<svg viewBox="-1 -110 220 220"><g clip-path="path('M 10.5200 3.0000 L 89.4800 3.0000 C 93.2400 3.0000 97.0000 6.7600 97.0000 10.5200 L 97.0000 89.4800 C 97.0000 93.2400 93.2400 97.0000 89.4800 97.0000 L 10.5200 97.0000 C 6.7600 97.0000 3.0000 93.2400 3.0000 89.4800 L 3.0000 10.5200 C 3.0000 6.7600 6.7600 3.0000 10.5200 3.0000 Z ') view-box"><path fill="#E06300" d="M0 0h100L83.333 50H16.667Z"/><path fill="#0078BB" d="M100 0v100L50 83.333V50Z"/><path fill="#00A679" d="M100 100H0l16.667-50H50Z"/><path fill="#F2A700" d="M0 100V0l50 50Z"/></g><g clip-path="path('M 103.0000 89.4800 L 103.0000 10.5200 C 103.0000 6.7600 106.7600 3.0000 110.5200 3.0000 L 189.4800 3.0000 C 193.2400 3.0000 197.0000 6.7600 197.0000 10.5200 L 197.0000 89.4800 C 197.0000 93.2400 193.2400 97.0000 189.4800 97.0000 L 110.5200 97.0000 C 106.7600 97.0000 103.0000 93.2400 103.0000 89.4800 Z ') view-box"><path fill="#E06300" d="M100 100V0l50 16.667v66.666Z"/><path fill="#0078BB" d="M100 0h100l-16.667 50H150Z"/><path fill="#00A679" d="M200 0v100l-50-16.667V50Z"/><path fill="#0078BB" d="M200 100H100l50-50Z"/></g><g clip-path="path('M 189.4800 -3.0000 L 110.5200 -3.0000 C 106.7600 -3.0000 103.0000 -6.7600 103.0000 -10.5200 L 103.0000 -89.4800 C 103.0000 -93.2400 106.7600 -97.0000 110.5200 -97.0000 L 189.4800 -97.0000 C 193.2400 -97.0000 197.0000 -93.2400 197.0000 -89.4800 L 197.0000 -10.5200 C 197.0000 -6.7600 193.2400 -3.0000 189.4800 -3.0000 Z ') view-box"><path fill="#00A679" d="M200 0H100l16.667-50h66.666Z"/><path fill="#00A679" d="M100 0v-100l50 16.667V-50Z"/><path fill="#0078BB" d="M100-100h100l-16.667 50H150Z"/><path fill="#E06300" d="M200-100V0l-50-50Z"/></g><g clip-path="path('M 89.4800 -3.0000 L 10.5200 -3.0000 C 6.7600 -3.0000 3.0000 -6.7600 3.0000 -10.5200 L 3.0000 -89.4800 C 3.0000 -93.2400 6.7600 -97.0000 10.5200 -97.0000 L 89.4800 -97.0000 C 93.2400 -97.0000 97.0000 -93.2400 97.0000 -89.4800 L 97.0000 -10.5200 C 97.0000 -6.7600 93.2400 -3.0000 89.4800 -3.0000 Z ') view-box"><path fill="#00A679" d="M100 0H0l16.667-50h66.666Z"/><path fill="#0078BB" d="M0 0v-100l50 16.667V-50Z"/><path fill="#0078BB" d="M0-100h100L83.333-50H50Z"/><path fill="#E06300" d="M100-100V0L50-50Z"/></g><path fill="#fff" d="M-10-110h220v220H-10zM5 5l40 40 10 10 40 40c2.5 2.5 7.5 2.5 10 0l40-40 10-10 40-40c2.5-2.5 2.5-7.5 0-10l-40-40-10-10-40-40c-2.5-2.5-7.5-2.5-10 0L55-55 45-45 5-5C2.5-2.5 2.5 2.5 5 5Z" opacity=".8"/><path fill="transparent" stroke="#fff" stroke-width="20" d="m5 5 40 40 10 10 40 40c2.5 2.5 7.5 2.5 10 0l40-40 10-10 40-40c2.5-2.5 2.5-7.5 0-10l-40-40-10-10-40-40c-2.5-2.5-7.5-2.5-10 0L55-55 45-45 5-5C2.5-2.5 2.5 2.5 5 5Z"/><path fill="transparent" stroke="#9acd32" stroke-width="10" d="m5 5 40 40 10 10 40 40c2.5 2.5 7.5 2.5 10 0l40-40 10-10 40-40c2.5-2.5 2.5-7.5 0-10l-40-40-10-10-40-40c-2.5-2.5-7.5-2.5-10 0L55-55 45-45 5-5C2.5-2.5 2.5 2.5 5 5Z"/></svg>
